Flat-Remix-Blue/mimetypes/scalable/gdtable.svg

<svg xmlns="http://www.w3.org/2000/svg" xmlns:xlink="http://www.w3.org/1999/xlink" width="36pt" height="36pt" version="1.1" viewBox="0 0 36 36"> <defs> <clipPath id="clip1"> <path d="M 20 2 L 31 2 L 31 13 L 20 13 Z M 20 2"/> </clipPath> <clipPath id="clip2"> <path d="M 20.515625 2.625 L 30.328125 12.4375 L 22.023438 12.4375 C 21.292969 12.4375 20.515625 11.660156 20.515625 10.929688 Z M 20.515625 2.625"/> </clipPath> <image id="image6" width="36" height="36" xlink:href="data:image/png;base64,iVBORw0KGgoAAAANSUhEUgAAACQAAAAkCAYAAADhAJiYAAAABmJLR0QA/wD/AP+gvaeTAAAAmklEQVRYhe3T0QqCQBBG4aOtYEoUvf9Lildltl00C4tkbBeTIP+BAUEYP1YW1Pcqh53B9kbgaVPcwQF0tAmGSrMZ6AKcDQXw+AUVHEAtcAUaewYYgYmC3+cBCkAPnDJQMcoDVNnebgEqQnmAclTz4d0I3P4JStc9AjXvk4qLWQV53LLeEOl05gw4A3dgcPiuUkoppZRSSqk99gLWvSJpuDnlsAAAAABJRU5ErkJggg=="/> </defs> <g> <path style="fill:rgb(4.705%,63.137%,36.862%);fill-opacity:0.996078" d="M 7.347656 3.152344 C 6.675781 3.152344 6.042969 3.785156 6.042969 4.457031 L 6.042969 31.847656 C 6.042969 32.480469 6.714844 33.152344 7.347656 33.152344 L 28.21875 33.152344 C 28.851562 33.152344 29.523438 32.480469 29.523438 31.847656 L 29.523438 11.632812 L 21.042969 3.152344 Z M 7.347656 3.152344"/> <g clip-path="url(#clip1)"> <g clip-path="url(#clip2)"> <use xlink:href="#image6"/> </g> </g> <path style="fill:rgb(32.941%,74.117%,55.686%)" d="M 21.042969 3.152344 L 29.523438 11.632812 L 22.347656 11.632812 C 21.714844 11.632812 21.042969 10.960938 21.042969 10.328125 Z M 21.042969 3.152344"/> <path style="fill:rgb(100.000%,100.000%,100.000%)" d="M 25.019531 14.148438 L 20.996094 19.257812 L 19.105469 16.96875 L 14.898438 22.414062 L 13.019531 20.261719 L 8.601562 25.777344 L 9.167969 26.066406 L 13.042969 21.234375 L 14.933594 23.394531 L 19.125 17.972656 L 21.007812 20.253906 L 25.0625 15.105469 L 26.601562 16.769531 L 27.144531 16.449219 Z M 25.019531 14.148438"/> <path style="fill:rgb(100.000%,100.000%,100.000%)" d="M 9.765625 14.609375 L 12.1875 14.609375 L 12.1875 16.0625 L 9.765625 16.0625 Z M 9.765625 14.609375"/> <path style="fill:rgb(100.000%,100.000%,100.000%)" d="M 9.765625 16.546875 L 12.1875 16.546875 L 12.1875 18 L 9.765625 18 Z M 9.765625 16.546875"/> <path style="fill:rgb(100.000%,100.000%,100.000%)" d="M 12.671875 14.609375 L 16.0625 14.609375 L 16.0625 16.0625 L 12.671875 16.0625 Z M 12.671875 14.609375"/> <path style="fill:rgb(100.000%,100.000%,100.000%)" d="M 12.671875 16.546875 L 16.0625 16.546875 L 16.0625 18 L 12.671875 18 Z M 12.671875 16.546875"/> <path style="fill:rgb(100.000%,100.000%,100.000%)" d="M 24.296875 18.96875 L 26.234375 18.96875 L 26.234375 26.71875 L 24.296875 26.71875 Z M 24.296875 18.96875"/> <path style="fill:rgb(100.000%,100.000%,100.000%)" d="M 20.421875 21.875 L 22.359375 21.875 L 22.359375 26.71875 L 20.421875 26.71875 Z M 20.421875 21.875"/> <path style="fill:rgb(100.000%,100.000%,100.000%)" d="M 16.546875 24.296875 L 18.484375 24.296875 L 18.484375 26.71875 L 16.546875 26.71875 Z M 16.546875 24.296875"/> </g> </svg>

<svg width="36pt" height="36pt" version="1.1" viewBox="0 0 36 36" xmlns="http://www.w3.org/2000/svg"><defs><filter id="a" x="-.192" y="-.192" width="1.384" height="1.384" color-interpolation-filters="sRGB"><feGaussianBlur stdDeviation="0.67843748"/></filter></defs><path d="m7.3477 3.1523c-0.67188 0-1.3047 0.63281-1.3047 1.3047v27.391c0 0.63281 0.67188 1.3047 1.3047 1.3047h20.871c0.63281 0 1.3047-0.67188 1.3047-1.3047v-20.215l-8.4805-8.4805z" fill="#0ba05d" fill-opacity=".99608"/><path d="m20.668 3.5272 8.4805 8.4805h-7.1758c-0.63281 0-1.3047-0.67187-1.3047-1.3047z" filter="url(#a)" opacity=".2"/><path d="m21.043 3.1523 8.4805 8.4805h-7.1758c-0.63281 0-1.3047-0.67187-1.3047-1.3047z" fill="#53bc8d"/><path d="m25.02 14.148-4.0234 5.1094-1.8906-2.2891-4.207 5.4453-1.8789-2.1523-4.418 5.5156 0.56641 0.28906 3.875-4.832 1.8906 2.1602 4.1914-5.4219 1.8828 2.2812 4.0547-5.1484 1.5391 1.6641 0.54297-0.32031z" fill="#fff"/><path d="m9.7656 14.609h2.4219v1.4531h-2.4219z" fill="#fff"/><path d="m9.7656 16.547h2.4219v1.4531h-2.4219z" fill="#fff"/><path d="m12.672 14.609h3.3906v1.4531h-3.3906z" fill="#fff"/><path d="m12.672 16.547h3.3906v1.4531h-3.3906z" fill="#fff"/><path d="m24.297 18.969h1.9375v7.75h-1.9375z" fill="#fff"/><path d="m20.422 21.875h1.9375v4.8438h-1.9375z" fill="#fff"/><path d="m16.547 24.297h1.9375v2.4219h-1.9375z" fill="#fff"/></svg>
